X: 100199
T: Jim Conway's Fling
T: Casey's Pig
S: B. Conway
Z: B.Black
R: hornpipe
M: 4/4
L: 1/8
K: G
G2 GD EDGD|GBdB A2 A2 |G2 GD EDGD|EGDB, A,2 G,2 :|
gabg d2 d2|gabg e4 |gbeg dgBg |AGAB G2 G2 :|
